X:169
T:Hommage aux musiciens traditionnels
C:Marcel Messervier
Z:robin.beech@mcgill.ca
S:Gaston Nolet: SPTDQ 2012
M:4/4
L:1/8
K:D
Ad | f3f e2f2 | AAA2- AGFE | D2F2 B2F2 | AGFA G3g | 
g3g f2g2 | c4- ccB2 | AAAB c2e2 | b2Bb a2Ad |
f3f e2f2 | AAAB AGFE | D2F2 B2F2 | AGFA G3g |
g3g f2e2 | aaa2- afef | gage B2c2 | ddfa (3ded :: 
Ac | e3e efed | c2a2 e3e | dedc (3BcBAB | cABc (3decBA |
e3e efed | c2a2 e3e | dedc B2cB | AAce a2Ac :|

